X: 42117
T: Warksburn, The
R: waltz
M: 3/4
K: Gmajor
D2|:G2 B2 e2|d2 B2 G2|c4 E2|E4 G2|
F2 G2 A2|E2 F2 D2|G4 B2|D4 D2|
G2 B2 e2|d2 B2 G2|c4 E2|E4 G2|
F2 G2 A2|E2 F2 D2|G6|1 G4 D2:|2 G4 Bc||
|:d4 B2|g4 B2|d2 c2 B2|A4 B2|
c4 A2|f4 e2|e2 d2 c2|B4 c2|
d4 B2|g4 B2|d2 c2 B2|A4 d2|
f2 e2 d2|c2 B2 A2|G6|1 G4 B2:|2 G4||

